src/modules/Map/Map/components/ShareControl/linkedin.svg

<svg xmlns="http://www.w3.org/2000/svg" width="17" height="16" viewBox="0 0 17 16">
  <path fill="#A7B6C2" d="M16.7035728,9.80749515 L16.7035728,15.9829126 L13.1234563,15.9829126 L13.1234563,10.2210874 C13.1234563,8.7736699 12.6056311,7.78586408 11.3097476,7.78586408 C10.3205049,7.78586408 9.73180583,8.45157282 9.47281553,9.09553398 C9.37836893,9.32574757 9.35405825,9.64617476 9.35405825,9.96842718 L9.35405825,15.9829126 L5.77273786,15.9829126 C5.77273786,15.9829126 5.82097087,6.22427184 5.77273786,5.21320388 L9.35370874,5.21320388 L9.35370874,6.73976699 C9.3464466,6.75118447 9.33700971,6.76349515 9.33017476,6.77456311 L9.35370874,6.77456311 L9.35370874,6.73976699 C9.82947573,6.00699029 10.6791456,4.96019417 12.5809709,4.96019417 C14.9372039,4.96019417 16.7035728,6.49945631 16.7035728,9.80749515 Z M2.02652427,0.0216699029 C0.801359223,0.0216699029 0,0.825281553 0,1.88205825 C0,2.91580583 0.778174757,3.74380583 1.97899029,3.74380583 L2.00291262,3.74380583 C3.25180583,3.74380583 4.02850485,2.91596117 4.02850485,1.88205825 C4.00497087,0.825281553 3.25180583,0.0216699029 2.02652427,0.0216699029 Z M0.212699029,15.9829126 L3.79266019,15.9829126 L3.79266019,5.21320388 L0.212699029,5.21320388 L0.212699029,15.9829126 Z"/>
</svg>

<svg xmlns="http://www.w3.org/2000/svg" width="17" height="16"><path fill="#A7B6C2" d="M16.704 9.807v6.176h-3.58V10.22c0-1.447-.518-2.435-1.814-2.435-.99 0-1.578.666-1.837 1.31-.095.23-.119.55-.119.872v6.015H5.773s.048-9.759 0-10.77h3.58V6.74l-.023.035h.024V6.74c.475-.733 1.325-1.78 3.227-1.78 2.356 0 4.123 1.54 4.123 4.847zM2.027.022C.8.022 0 .825 0 1.882c0 1.034.778 1.862 1.979 1.862h.024c1.249 0 2.026-.828 2.026-1.862C4.005.825 3.252.022 2.027.022zM.213 15.982h3.58V5.214H.213v10.77z"/></svg>
